brandFactory_export/2.Regular/Flecha arriba derecha_2Regular.svg

<?xml version="1.0" encoding="UTF-8"?>
<svg width="24px" height="24px" viewBox="0 0 24 24" version="1.1" xmlns="http://www.w3.org/2000/svg" xmlns:xlink="http://www.w3.org/1999/xlink">
    <title>2.Regular/Flecha arriba derecha_2Regular</title>
    <g id="Symbols" stroke="none" stroke-width="1" fill="none" fill-rule="evenodd">
        <g id="2.Regular/Flecha-arriba-derecha_2Regular" fill="#5CB615" fill-rule="nonzero">
            <path d="M7.94957983,22.3226891 C7.47563025,22.3226891 6.99831933,22.1008403 6.5512605,21.6537815 L0.490756303,15.6235294 L0.470588235,15.6033613 C0.087394958,15.1865546 -0.0571428571,14.7529412 0.0369747899,14.3092437 C0.124369748,13.9058824 0.4,13.5831933 0.662184874,13.3210084 L0.678991597,13.3042017 L6.81680672,7.52941176 L3.7210084,4.43361345 L3.71092437,4.42352941 C3.33109244,4.02689076 3.22016807,3.3512605 3.4487395,2.81680672 C3.66386555,2.31932773 4.13109244,2.02371108 4.70252101,2.02689076 L19.2067227,2.02689076 C19.5428571,2.00336134 19.8453782,2.11092437 20.0672269,2.33277311 C20.2890756,2.55462185 20.3966387,2.85714286 20.3697479,3.19327731 L20.3630252,17.7680672 C20.3663866,18.2789916 20.0941176,18.7058824 19.6268908,18.9142857 C19.0789916,19.1596639 18.3697479,19.0487395 17.9394958,18.6554622 C17.9327731,18.6487395 17.9260504,18.6420168 17.9193277,18.6386555 L15.0689076,15.7815126 L9.3210084,21.6672269 L9.31428571,21.6739496 C8.88403361,22.107563 8.41680672,22.3226891 7.94957983,22.3226891 L7.94957983,22.3226891 Z M1.41512605,14.7193277 L7.46218487,20.7394958 C7.65042017,20.9277311 7.82184874,21.0319328 7.94285714,21.0352941 L7.94621849,21.0352941 C8.09747899,21.0352941 8.27563025,20.887395 8.4,20.7630252 L14.2252101,14.7966387 L14.2319328,14.789916 C14.692437,14.3294118 15.4319328,14.3193277 15.8823529,14.7697479 L18.8201681,17.707563 C18.8705882,17.7445378 18.9983193,17.7613445 19.0756303,17.7445378 L19.0823529,3.31764706 L4.69579832,3.31764706 C4.66554622,3.31764706 4.64537815,3.3210084 4.63529412,3.32436975 C4.61176471,3.36806723 4.61512605,3.48907563 4.64537815,3.53613445 L7.82857143,6.71932773 C8.04705882,6.93781513 8.16806723,7.24369748 8.15798319,7.55966387 C8.14789916,7.86554622 8.02352941,8.1512605 7.80504202,8.3697479 L7.79159664,8.38319328 L1.5697479,14.2386555 C1.36806723,14.4436975 1.31764706,14.5344538 1.30420168,14.5680672 C1.31428571,14.5882353 1.34117647,14.6386555 1.41512605,14.7193277 Z" id="Flecha-arriba-derecha_2Regular"></path>
        </g>
    </g>
</svg>

<svg width="24" height="24" viewBox="0 0 24 24" xmlns="http://www.w3.org/2000/svg"><path d="M7.95 22.323c-.474 0-.952-.222-1.399-.67l-6.06-6.03-.02-.02c-.384-.416-.528-.85-.434-1.294.087-.403.363-.726.625-.988l.017-.017L6.817 7.53 3.72 4.434l-.01-.01c-.38-.397-.49-1.073-.262-1.607.215-.498.682-.793 1.254-.79h14.504c.336-.024.638.084.86.306.222.222.33.524.303.86l-.007 14.575a1.21 1.21 0 01-.736 1.146c-.548.246-1.257.135-1.688-.259-.006-.006-.013-.013-.02-.016l-2.85-2.857-5.748 5.885-.007.007c-.43.434-.897.649-1.364.649zm-6.535-7.604l6.047 6.02c.188.189.36.293.48.296h.004c.151 0 .33-.148.454-.272l5.825-5.966.007-.007c.46-.46 1.2-.47 1.65-.02l2.938 2.938c.05.037.178.053.256.037l.006-14.427H4.696a.21.21 0 00-.06.006.29.29 0 00.01.212L7.828 6.72c.218.219.34.525.329.84-.01.307-.134.592-.353.81l-.013.014L1.57 14.24c-.202.205-.252.295-.266.33.01.02.037.07.111.15z" fill="#5CB615" fill-rule="nonzero"/></svg>
